exported-svg/folder.svg

<svg height="24" viewBox="0 0 24 24" width="24" xmlns="http://www.w3.org/2000/svg"><path d="m11.7675919 6h8.7324081c1.3807119 0 2.5 1.11928813 2.5 2.5v11c0 1.3807119-1.1192881 2.5-2.5 2.5h-16c-1.38071187 0-2.5-1.1192881-2.5-2.5v-14c0-1.38071187 1.11928813-2.5 2.5-2.5h5c.16717659 0 .32329226.08355057.41602515.2226499zm-2.53518378-2h-4.73240812c-.82842712 0-1.5.67157288-1.5 1.5v14c0 .8284271.67157288 1.5 1.5 1.5h16c.8284271 0 1.5-.6715729 1.5-1.5v-11c0-.82842712-.6715729-1.5-1.5-1.5h-9c-.1671766 0-.3232923-.08355057-.4160251-.2226499z"/></svg>

<?xml version="1.0" encoding="UTF-8"?>
<svg width="24px" height="24px" viewBox="0 0 24 24" version="1.1" xmlns="http://www.w3.org/2000/svg" xmlns:xlink="http://www.w3.org/1999/xlink">
    <!-- Generator: Sketch 55.2 (78181) - https://sketchapp.com -->
    <title>folder</title>
    <desc>Created with Sketch.</desc>
    <g id="folder" stroke="none" stroke-width="1" fill="none" fill-rule="evenodd">
        <path d="M11.7675919,6 L20.5,6 C21.8807119,6 23,7.11928813 23,8.5 L23,19.5 C23,20.8807119 21.8807119,22 20.5,22 L4.5,22 C3.11928813,22 2,20.8807119 2,19.5 L2,5.5 C2,4.11928813 3.11928813,3 4.5,3 L9.5,3 C9.66717659,3 9.82329226,3.08355057 9.91602515,3.2226499 L11.7675919,6 Z M9.23240812,4 L4.5,4 C3.67157288,4 3,4.67157288 3,5.5 L3,19.5 C3,20.3284271 3.67157288,21 4.5,21 L20.5,21 C21.3284271,21 22,20.3284271 22,19.5 L22,8.5 C22,7.67157288 21.3284271,7 20.5,7 L11.5,7 C11.3328234,7 11.1767077,6.91644943 11.0839749,6.7773501 L9.23240812,4 Z" id="Shape" fill="#000000" fill-rule="nonzero"></path>
    </g>
</svg>
